X: 39098
T: Sweeney's Wheel
R: reel
M: 4/4
K: Dmajor
|[A2d2]fd adfd|ddfd cdec|A2fd adfd|cBAB cdec|
A2fd adfd|adfd cdec|Adfd adfd|(3cdc BA BABA||
B2[Dd]B B2[Dd]B|BB[Dd]B cdec|B2dB FBdB|cBAB cedc|
B2dB FBdB|[G2B2]dB cdec|[F2B2]dB FBdB|cBAB cdef||
geee g2af|geee ~g3a|g2af gfed|(3Bcd ef g2ga|
geee geaf|geef ~g3a|geaf gfed|(3Bcd ef g3a||
baaa fddd|cdef g2ga|baaa fedB|ABcd efga|
baaa fddd|cdef ~g3a|baaa fedB|ABcd effe||
fd[Ae]d Fd[Ae]d|fd[Ae]d (3Bcd eg|fd[Ae]d Fd[Ae]d|cBAB cdeg|
fded Fded|fded (3Bcd eg|fded Fded|cBAB cdec||

